X: 23455
T: Let The Sleeping Cat Lie
R: jig
M: 6/8
K: Gmajor
|:B3 GAB|dBG EFG|FAF DFA|dg/f/e dBA|
B3 GAB|ded BAG|D3 DEF|GAF G2A:|
|:Bdg gdB|ceg g2e|Bdg gdB|dg/f/e dBA|
Bdg gdB|ceg g2e|B3 d3|ABF G2A:|

